styles/2/Numix/64/places/custom-folder-saved-search.svg

<?xml version="1.0" encoding="UTF-8" standalone="no"?>
<svg
   xmlns:dc="http://purl.org/dc/elements/1.1/"
   xmlns:cc="http://creativecommons.org/ns#"
   xmlns:rdf="http://www.w3.org/1999/02/22-rdf-syntax-ns#"
   xmlns:svg="http://www.w3.org/2000/svg"
   xmlns="http://www.w3.org/2000/svg"
   xmlns:sodipodi="http://sodipodi.sourceforge.net/DTD/sodipodi-0.dtd"
   xmlns:inkscape="http://www.inkscape.org/namespaces/inkscape"
   width="64"
   height="64"
   viewBox="0 0 64 64"
   id="svg3039"
   version="1.1"
   inkscape:version="0.91 r"
   sodipodi:docname="custom-folder-saved-search.svg">
  <metadata
     id="metadata3053">
    <rdf:RDF>
      <cc:Work
         rdf:about="">
        <dc:format>image/svg+xml</dc:format>
        <dc:type
           rdf:resource="http://purl.org/dc/dcmitype/StillImage" />
      </cc:Work>
    </rdf:RDF>
  </metadata>
  <defs
     id="defs3051" />
  <sodipodi:namedview
     pagecolor="#ffffff"
     bordercolor="#666666"
     borderopacity="1"
     objecttolerance="10"
     gridtolerance="10"
     guidetolerance="10"
     inkscape:pageopacity="0"
     inkscape:pageshadow="2"
     inkscape:window-width="1280"
     inkscape:window-height="998"
     id="namedview3049"
     showgrid="false"
     inkscape:zoom="5.2149125"
     inkscape:cx="-18.882628"
     inkscape:cy="30.451009"
     inkscape:window-x="0"
     inkscape:window-y="0"
     inkscape:window-maximized="1"
     inkscape:current-layer="svg3039" />
  <path
     style="fill:replacecolour1;fill-opacity:1;stroke:none"
     d="M 9,8 C 7.536083,8 6,9.511222 6,11 l 0,1 -3,0 c -1.470099,0 -3,1.49533 -3,3 l 0,38 c 0,2 1,3 3,3 l 58,0 c 1.567614,0 3,-1.358342 3,-3 l 0,-33 c 0,-1.504928 -1.455038,-3 -3,-3 l -3,0 0,-6 C 58,9.538843 56.546781,8 55,8 z"
     id="path6"
     inkscape:connector-curvature="0"
     sodipodi:nodetypes="ssccssssscccsss" />
  <path
     inkscape:connector-curvature="0"
     style="fill:replacecolour2;fill-opacity:1.;stroke:none"
     d="M 9,8 C 7.536083,8 6,9.511222 6,11 l 0,1 -3,0 c -1.470099,0 -3,1.49533 -3,3 l 0,38 c 0,2 1,3 3,3 l 58,0 c 1.567614,0 3,-1.358342 3,-3 l 0,-33 c 0,-1.504928 -1.455038,-3 -3,-3 l -3,0 0,-6 C 58,9.538843 56.546781,8 55,8 L 9,8 z m -6,6 34,0 c 0.590175,0 1,0.51477 1,1 l 0,4 23,0 c 0.505551,0 1,0.508742 1,1 l 0,33 c 0,0.521292 -0.478766,1 -1,1 L 3,54 C 2.535705,54 2,53.603654 2,53 L 2,15 c 0,-0.492405 0.516529,-1 1,-1 z"
     id="path3778" />
  <path
     style="opacity:1;fill:replacecolour3;fill-opacity:1.;stroke:none"
     d="M 36 23 C 30.477153 23 26 27.477152 26 33 C 26 35.095802 26.648062 37.049134 27.75 38.65625 C 27.509319 38.754184 27.258369 38.897881 27.0625 39.09375 L 18.59375 47.59375 C 17.810276 48.377224 17.810276 49.622776 18.59375 50.40625 C 19.377224 51.189724 20.622776 51.189724 21.40625 50.40625 L 29.90625 41.9375 C 30.102119 41.741631 30.245816 41.490681 30.34375 41.25 C 31.950866 42.351938 33.904199 43 36 43 C 41.522847 43 46 38.522848 46 33 C 46 27.477152 41.522847 23 36 23 z M 36 26 C 39.865993 26 43 29.134007 43 33 C 43 36.865993 39.865993 40 36 40 C 32.134007 40 29 36.865993 29 33 C 29 29.134007 32.134007 26 36 26 z "
     id="rect3055" />
</svg>

<svg xmlns="http://www.w3.org/2000/svg" viewBox="0 0 64 64">
 <path d="m 9 8 c -1.464 0 -3 1.511 -3 3 l 0 1 -3 0 c -1.47 0 -3 1.495 -3 3 l 0 38 c 0 2 1 3 3 3 l 58 0 c 1.568 0 3 -1.358 3 -3 l 0 -33 c 0 -1.505 -1.455 -3 -3 -3 l -3 0 0 -6 c 0 -1.461 -1.453 -3 -3 -3 z" style="fill:replacecolour1;fill-opacity:1;stroke:none"/>
 <path d="m 9 8 c -1.464 0 -3 1.511 -3 3 l 0 1 -3 0 c -1.47 0 -3 1.495 -3 3 l 0 38 c 0 2 1 3 3 3 l 58 0 c 1.568 0 3 -1.358 3 -3 l 0 -33 c 0 -1.505 -1.455 -3 -3 -3 l -3 0 0 -6 c 0 -1.461 -1.453 -3 -3 -3 l -46 0 z m -6 6 34 0 c 0.59 0 1 0.515 1 1 l 0 4 23 0 c 0.506 0 1 0.509 1 1 l 0 33 c 0 0.521 -0.479 1 -1 1 l -58 0 c -0.464 0 -1 -0.396 -1 -1 l 0 -38 c 0 -0.492 0.517 -1 1 -1 z" style="fill:replacecolour2;fill-opacity:1;stroke:none"/>
 <path d="m 36 23 c -5.523 0 -10 4.477 -10 10 c 0 2.096 0.648 4.049 1.75 5.656 c -0.241 0.098 -0.492 0.242 -0.688 0.438 l -8.469 8.5 c -0.783 0.783 -0.783 2.029 0 2.813 c 0.783 0.783 2.029 0.783 2.813 0 l 8.5 -8.469 c 0.196 -0.196 0.34 -0.447 0.438 -0.688 c 1.607 1.102 3.56 1.75 5.656 1.75 c 5.523 0 10 -4.477 10 -10 c 0 -5.523 -4.477 -10 -10 -10 z m 0 3 c 3.866 0 7 3.134 7 7 c 0 3.866 -3.134 7 -7 7 c -3.866 0 -7 -3.134 -7 -7 c 0 -3.866 3.134 -7 7 -7 z" style="fill:replacecolour3;opacity:1;fill-opacity:1;stroke:none"/>
</svg>
